X: 5579
T: Bush On The Hill, The
R: jig
M: 6/8
K: Gmajor
|:G,3 B,A,B,|GFG Bdg|edc BdA|BGE EDB,|
G,3 B,A,B,|GFG Bdg|edc BdA|BGF G3:|
|:GBd g3|ege dBG|cec BdB|AGA BGE|
GBd g3|ece dBG|cBA BdB|AGF G3:|

